X: 43553
T: Youghal Harbour
R: hornpipe
M: 4/4
K: Gmajor
|:(3def|gfed B2AB|dB (3ABA GEDE|G2GA BABd|edef g2ef|
gfed B2AB|dB (3ABA G2G2|G2G2G2:|
|:GA|(3Bcd ef g2fg|agfg e3g|fedB dBAB|d2de d2 (3def|
g2ga gfed|(3Bcd BG EDB[AD]|GFGA BA (3Bcd|edef g2ef|
gfed B2AB|dB (3ABA G2G2|G2G2G2:|

